X: 1
T: Ingonish
R: jig
M: 6/8
L: 1/8
K: Edor
Bee efg|fef dBA|Bee efg|fdc d3|
Bee efg|fef dBA|B3 Bcd|AGF E3:||
BEE BEE|FEF DFA|BEE BEE|FED E3|
BEE BEE|FEF DFA|B3 Bcd|AGF E3:||


Tune 780	Setting 21241

